X:1
T:Title
%%score { ( 1 4 ) | ( 2 3 ) }
L:1/8
Q:1/4=93
M:6/8
K:Bb
V:1 treble nm="Grand Piano"
V:4 treble 
V:2 bass 
V:3 bass 
V:1
 D2 D CB,C | F3 F2 [DF] | [EG]2 B A2 G | [B,DF]6 | [B,D]2 D CB,C | F3 F2 [B,FG] | .[FA]3 z3 | c6 | %8
w: Charles~H.~Gabriel * * * *||||||||
 [DB]2 B BAG | [EB]3 [CEA]2 E | [A,EG]2 G GAG | [DF]6 | B2 F DCB, | G3 C2 C | F2 F F2 [A,CEF] | %15
w: |||||||
 [F,B,DF]6 |[M:4/4] [DF]2 [DG]2 [DG]2 [DF]>[DF] | [Fd]>[Fd] [Ec]>[DB] [DF]4 | A>A A>A c<c- c>F | %19
w: ||||
 [DF]>[EG] [DF]>[CE] [B,D]4 | [DF]2 [DG]2 [DG]2 [DF]>[DF] | d>B c>d [Ge]4 | %22
w: |||
[M:35/32] G>GA>B F2 [FB]-(3:2:4[FB]3/2-[FB]/4[Gc]3/4-[Gc]/8 |[M:4/4] (5:4:5d/d/-d3/2 d/ c2 [DB]4 |] %24
w: ||
V:2
 B,2 B, F,-[D,F,-][E,F,A,] | [D,F,B,]3 [B,,D,B,]2 [B,,B,] | z2[K:treble] G F2 E | B,,6 | %4
 z2 B, .[E,F,A,]2 [G,A,] | [B,,D,B,]3 [D,F,B,]2 _D, | z2 F C,2[K:treble] [B,=E] | %7
 [A,CF]2[K:bass] [G,B,] .[F,A,]3 | z2 D D2 D | [C,F,]3 z2 C | z2 [A,E] [A,E]2 [A,E] | [B,,B,]6 | %12
 B,2 B, [B,,B,][C,A,]D, | B,3 [G,B,]2 [^F,B,] | F,6 | B,,6 | %16
[M:4/4] [B,,B,]2 [B,,B,]2 [B,,B,]2 [B,,B,]>[B,,B,] | [B,,B,]>[B,,B,] [B,,B,]>[B,,B,] [B,,B,]4 | %18
 [F,CE]>[F,CE] [F,CE]>[F,CE] [F,A,E]<[F,A,E]- [F,A,E]>[F,A,E] | %19
 [B,,B,]>[B,,B,] [B,,B,]>[B,,F,] [B,,F,]4 | [B,,B,]2 [B,,B,]2 [B,,B,]2 [B,,B,]>[B,,B,] | %21
 [B,F]>[B,D] [B,E]>[B,F][K:bass] [E,B,]4 | %22
[M:35/32] [E,B,E]>[E,B,E][E,F,E]>[E,G,E] [D,B,]2 [D,B,]-(3:2:4[D,B,]3/2-[D,B,]/4[E,B,]3/4-[E,B,]/8 | %23
[M:4/4] (5:4:5[F,B,F]/[F,B,F]/-[F,B,F]3/2 [F,B,F]/ [F,A,E]2 [B,,B,]4 |] %24
V:3
 [B,,F,]3 .[E,A,]3 | x6 | [E,B,]6[K:treble] | x6 | [B,,F,]3 z F,2 | x6 | C,3 z3[K:treble] | %7
 x2[K:bass] x4 | [B,,F,]6 | z3 F,3 | [F,,F,]6 | x6 | [D,F,-]3 F,3 | E,6 | %14
 [D,B,]2 [_D,B,] [C,A,]2 F,, | x6 |[M:4/4] x8 | x8 | x8 | x8 | x8 | x4[K:bass] x4 | %22
[M:35/32] x35/4 |[M:4/4] x8 |] %24
V:4
 x6 | x6 | x6 | x6 | x6 | x6 | D2- [D-A] [D=EA]2 G | z2 =E ._E3 | x6 | x6 | x6 | x6 | x6 | x6 | %14
 x6 | x6 |[M:4/4] x8 | x8 | x8 | x8 | x8 | x8 |[M:35/32] x35/4 |[M:4/4] x8 |] %24

